images/icons/sublimetext.svg

<svg xmlns="http://www.w3.org/2000/svg" preserveAspectRatio="xMidYMid" viewBox="0 0 256 332">
  <defs>
    <linearGradient id="a" x1="55.1170996%" x2="63.6801778%" y1="58.6795405%" y2="39.5971572%">
      <stop offset="0%" stop-color="#FF9700"/>
      <stop offset="53%" stop-color="#F48E00"/>
      <stop offset="100%" stop-color="#D06F00"/>
    </linearGradient>
  </defs>
  <path fill="url(#a)" d="M255.288325 166.794648c0-3.886596-2.872391-6.127771-6.397279-5.014276L6.39727934 238.675387C2.86530029 239.795974 0 243.859878 0 247.73938v78.590081c0 3.886596 2.86530029 6.134863 6.39727934 5.014276L248.891046 254.455814c3.524888-1.120587 6.397279-5.184491 6.397279-9.071085v-78.590081Z"/>
  <path fill="#FF9800" d="M0 164.291056c0 3.886596 2.86530029 7.950499 6.39727934 9.071088L248.926508 250.26425c3.531979 1.120587 6.397279-1.12768 6.397279-5.007183v-78.597174c0-3.879502-2.8653-7.943406-6.397279-9.063994L6.39727934 80.693793C2.86530029 79.5732052 0 81.8143808 0 85.7009761v78.5900799Z"/>
  <path fill="#FF9800" d="M255.288325 5.30235244c0-3.88659543-2.872391-6.13486323-6.397279-5.0142755L6.39727934 77.1759986C2.86530029 78.2965864 0 82.36049 0 86.2470854v78.5900796c0 3.886596 2.86530029 6.127771 6.39727934 5.014276L248.891046 92.9564272c3.524888-1.1205878 6.397279-5.1844914 6.397279-9.0639945V5.30235244Z"/>
</svg>

<?xml version="1.0" encoding="UTF-8"?>
<svg width="256px" height="332px" viewBox="0 0 256 332" version="1.1" xmlns="http://www.w3.org/2000/svg" xmlns:xlink="http://www.w3.org/1999/xlink" preserveAspectRatio="xMidYMid">
    <defs>
        <linearGradient x1="55.1170996%" y1="58.6795405%" x2="63.6801778%" y2="39.5971572%" id="linearGradient-1">
            <stop stop-color="#FF9700" offset="0%"></stop>
            <stop stop-color="#F48E00" offset="53%"></stop>
            <stop stop-color="#D06F00" offset="100%"></stop>
        </linearGradient>
    </defs>
    <g>
				<path d="M255.288325,166.794648 C255.288325,162.908052 252.415934,160.666877 248.891046,161.780372 L6.39727934,238.675387 C2.86530029,239.795974 0,243.859878 0,247.73938 L0,326.329461 C0,330.216057 2.86530029,332.464324 6.39727934,331.343737 L248.891046,254.455814 C252.415934,253.335227 255.288325,249.271323 255.288325,245.384729 L255.288325,166.794648 L255.288325,166.794648 Z" fill="url(#linearGradient-1)"></path>
				<path d="M5.68434189e-14,164.291056 C5.68434189e-14,168.177652 2.86530029,172.241555 6.39727934,173.362144 L248.926508,250.26425 C252.458487,251.384837 255.323787,249.13657 255.323787,245.257067 L255.323787,166.659893 C255.323787,162.780391 252.458487,158.716487 248.926508,157.595899 L6.39727934,80.693793 C2.86530029,79.5732052 5.68434189e-14,81.8143808 5.68434189e-14,85.7009761 L5.68434189e-14,164.291056 Z" fill="#FF9800"></path>
				<path d="M255.288325,5.30235244 C255.288325,1.41575701 252.415934,-0.83251079 248.891046,0.288076943 L6.39727934,77.1759986 C2.86530029,78.2965864 0,82.36049 0,86.2470854 L0,164.837165 C0,168.723761 2.86530029,170.964936 6.39727934,169.851441 L248.891046,92.9564272 C252.415934,91.8358394 255.288325,87.7719358 255.288325,83.8924327 L255.288325,5.30235244 Z" fill="#FF9800"></path>
		</g>
</svg>
